;FLAVOR:Marlin
;TIME:317
;Filament used: 0.274303m
;Layer height: 0.15
;Generated with Cura_SteamEngine 3.6.0
M140 S100
M105
M190 S100
M104 S230
M105
M109 S230
M82 ;absolute extrusion mode
G28 ;Home
G1 Z15.0 F6000 ;Move the platform down 15mm
;Prime the extruder
G92 E0
G1 E2
G1 F200 E3
G92 E0
G92 E0
G1 F1200 E-2
;LAYER_COUNT:34
;LAYER:0
M107
G0 F1800 X79.473 Y79.325 Z0.1
;TYPE:SKIRT
G1 F1200 E0
G1 X79.928 Y78.945 E0.00986
G1 X80.431 Y78.631 E0.01972
G1 X80.971 Y78.386 E0.02958
G1 X81.54 Y78.217 E0.03945
G1 X82.125 Y78.126 E0.0493
G1 X82.509 Y78.109 E0.05569
G1 X97.491 Y78.11 E0.30484
G1 X98.083 Y78.15 E0.31471
G1 X98.664 Y78.269 E0.32457
G1 X99.223 Y78.465 E0.33442
G1 X99.751 Y78.735 E0.34428
G1 X100.238 Y79.073 E0.35414
G1 X100.676 Y79.474 E0.36402
G1 X101.055 Y79.93 E0.37388
G1 X101.37 Y80.432 E0.38373
G1 X101.614 Y80.973 E0.3936
G1 X101.783 Y81.541 E0.40346
G1 X101.874 Y82.127 E0.41332
G1 X101.891 Y82.51 E0.4197
G1 X101.891 Y97.491 E0.66883
G1 X101.851 Y98.083 E0.6787
G1 X101.732 Y98.663 E0.68855
G1 X101.536 Y99.223 E0.69841
G1 X101.266 Y99.751 E0.70827
G1 X100.928 Y100.238 E0.71813
G1 X100.527 Y100.675 E0.728
G1 X100.072 Y101.055 E0.73786
G1 X99.569 Y101.369 E0.74772
G1 X99.029 Y101.614 E0.75758
G1 X98.46 Y101.783 E0.76745
G1 X97.875 Y101.874 E0.77729
G1 X97.491 Y101.891 E0.78369
G1 X82.509 Y101.891 E1.03284
G1 X81.917 Y101.851 E1.04271
G1 X81.337 Y101.732 E1.05255
G1 X80.777 Y101.536 E1.06242
G1 X80.249 Y101.266 E1.07228
G1 X79.762 Y100.928 E1.08214
G1 X79.325 Y100.527 E1.092
G1 X78.945 Y100.072 E1.10186
G1 X78.631 Y99.569 E1.11172
G1 X78.386 Y99.029 E1.12158
G1 X78.217 Y98.46 E1.13145
G1 X78.126 Y97.875 E1.1413
G1 X78.109 Y97.491 E1.14769
G1 X78.109 Y82.509 E1.39684
G1 X78.149 Y81.917 E1.40671
G1 X78.268 Y81.337 E1.41656
G1 X78.464 Y80.777 E1.42642
G1 X78.734 Y80.249 E1.43629
G1 X79.072 Y79.762 E1.44614
G1 X79.473 Y79.325 E1.45601
G0 F1800 X79.865 Y79.507
G1 F1200 X80.315 Y79.165 E1.46541
G1 X80.808 Y78.889 E1.4748
G1 X81.336 Y78.685 E1.48422
G1 X81.886 Y78.558 E1.4936
G1 X82.509 Y78.509 E1.504
G1 X97.491 Y78.51 E1.75315
G1 X98.055 Y78.55 E1.76255
G1 X98.608 Y78.669 E1.77196
G1 X99.138 Y78.865 E1.78136
G1 X99.636 Y79.134 E1.79077
G1 X100.09 Y79.47 E1.80016
G1 X100.493 Y79.866 E1.80956
G1 X100.836 Y80.316 E1.81897
G1 X101.111 Y80.809 E1.82835
G1 X101.315 Y81.337 E1.83777
G1 X101.442 Y81.888 E1.84717
G1 X101.491 Y82.51 E1.85755
G1 X101.491 Y97.491 E2.10668
G1 X101.451 Y98.055 E2.11608
G1 X101.332 Y98.608 E2.12549
G1 X101.136 Y99.138 E2.13489
G1 X100.868 Y99.635 E2.14428
G1 X100.532 Y100.09 E2.15369
G1 X100.135 Y100.493 E2.16309
G1 X99.685 Y100.835 E2.17249
G1 X99.192 Y101.111 E2.18189
G1 X98.664 Y101.315 E2.1913
G1 X98.114 Y101.442 E2.20069
G1 X97.491 Y101.491 E2.21108
G1 X82.509 Y101.491 E2.46023
G1 X81.945 Y101.451 E2.46964
G1 X81.392 Y101.332 E2.47904
G1 X80.862 Y101.136 E2.48844
G1 X80.365 Y100.868 E2.49783
G1 X79.91 Y100.532 E2.50724
G1 X79.507 Y100.135 E2.51664
G1 X79.165 Y99.685 E2.52604
G1 X78.889 Y99.192 E2.53544
G1 X78.685 Y98.664 E2.54485
G1 X78.558 Y98.114 E2.55424
G1 X78.509 Y97.491 E2.56463
G1 X78.509 Y82.509 E2.81378
G1 X78.549 Y81.945 E2.82319
G1 X78.668 Y81.392 E2.83259
G1 X78.864 Y80.862 E2.84199
G1 X79.132 Y80.365 E2.85138
G1 X79.468 Y79.91 E2.86079
G1 X79.865 Y79.507 E2.8702
G0 F1800 X79.864 Y80.067
G1 F1200 X80.256 Y79.701 E2.87911
G1 X80.698 Y79.398 E2.88803
G1 X81.181 Y79.163 E2.89696
G1 X81.692 Y79.003 E2.90586
G1 X82.222 Y78.92 E2.91479
G1 X82.509 Y78.909 E2.91956
G1 X97.491 Y78.91 E3.16871
G1 X98.026 Y78.95 E3.17764
G1 X98.549 Y79.069 E3.18656
G1 X99.048 Y79.264 E3.19546
G1 X99.513 Y79.532 E3.20439
G1 X99.933 Y79.865 E3.2133
G1 X100.299 Y80.257 E3.22222
G1 X100.603 Y80.699 E3.23114
G1 X100.837 Y81.182 E3.24007
G1 X100.997 Y81.694 E3.24899
G1 X101.08 Y82.223 E3.25789
G1 X101.091 Y82.51 E3.26267
G1 X101.091 Y97.491 E3.51181
G1 X101.051 Y98.026 E3.52073
G1 X100.932 Y98.549 E3.52965
G1 X100.737 Y99.048 E3.53856
G1 X100.469 Y99.513 E3.54748
G1 X100.136 Y99.933 E3.5564
G1 X99.744 Y100.299 E3.56532
G1 X99.302 Y100.602 E3.57423
G1 X98.819 Y100.837 E3.58316
G1 X98.308 Y100.997 E3.59206
G1 X97.778 Y101.08 E3.60099
G1 X97.491 Y101.091 E3.60576
G1 X82.509 Y101.091 E3.85491
G1 X81.974 Y101.051 E3.86384
G1 X81.451 Y100.932 E3.87276
G1 X80.952 Y100.737 E3.88166
G1 X80.487 Y100.469 E3.89059
G1 X80.067 Y100.136 E3.8995
G1 X79.701 Y99.744 E3.90842
G1 X79.398 Y99.302 E3.91733
G1 X79.163 Y98.819 E3.92627
G1 X79.003 Y98.308 E3.93517
G1 X78.92 Y97.778 E3.94409
G1 X78.909 Y97.491 E3.94887
G1 X78.909 Y82.509 E4.19802
G1 X78.949 Y81.974 E4.20694
G1 X79.068 Y81.451 E4.21586
G1 X79.263 Y80.952 E4.22477
G1 X79.531 Y80.487 E4.2337
G1 X79.864 Y80.067 E4.24261
G0 F1800 X80.258 Y80.234
G1 F1200 X80.645 Y79.908 E4.25103
G1 X81.078 Y79.647 E4.25943
G1 X81.546 Y79.457 E4.26783
G1 X82.039 Y79.344 E4.27625
G1 X82.509 Y79.309 E4.28408
G1 X97.491 Y79.31 E4.53323
G1 X97.995 Y79.35 E4.54164
G1 X98.487 Y79.469 E4.55006
G1 X98.953 Y79.664 E4.55846
G1 X99.383 Y79.929 E4.56686
G1 X99.766 Y80.26 E4.57528
G1 X100.092 Y80.646 E4.58368
G1 X100.353 Y81.079 E4.59209
G1 X100.543 Y81.548 E4.6005
G1 X100.656 Y82.04 E4.6089
G1 X100.691 Y82.51 E4.61674
G1 X100.691 Y97.491 E4.86587
G1 X100.651 Y97.995 E4.87428
G1 X100.532 Y98.486 E4.88268
G1 X100.338 Y98.953 E4.89109
G1 X100.072 Y99.383 E4.8995
G1 X99.742 Y99.766 E4.90791
G1 X99.355 Y100.092 E4.91632
G1 X98.922 Y100.353 E4.92473
G1 X98.454 Y100.543 E4.93313
G1 X97.961 Y100.656 E4.94154
G1 X97.491 Y100.691 E4.94938
G1 X82.509 Y100.691 E5.19853
G1 X82.005 Y100.651 E5.20694
G1 X81.514 Y100.532 E5.21534
G1 X81.047 Y100.338 E5.22375
G1 X80.617 Y100.072 E5.23216
G1 X80.234 Y99.742 E5.24057
G1 X79.908 Y99.355 E5.24898
G1 X79.647 Y98.922 E5.25739
G1 X79.457 Y98.454 E5.26579
G1 X79.344 Y97.961 E5.2742
G1 X79.309 Y97.491 E5.28204
G1 X79.309 Y82.509 E5.53119
G1 X79.349 Y82.005 E5.5396
G1 X79.468 Y81.514 E5.548
G1 X79.662 Y81.047 E5.55641
G1 X79.928 Y80.617 E5.56482
G1 X80.258 Y80.234 E5.57323
G1 F1200 E3.57323
;MESH:тестовый кубик.stl
G0 F1800 X83.014 Y83.014
G0 X84.645 Y91.421
G0 X85.137 Y92.654
G0 X85.908 Y93.733
G0 X86.913 Y94.601
G0 X88.097 Y95.202
G0 X89.142 Y95.446
G0 X90.275 Y95.594
G0 X90.271 Y95.495
;TYPE:WALL-OUTER
G1 F1200 E5.57323
G1 X90.71 Y95.455 E5.59155
G1 X91.144 Y95.38 E5.60986
G1 X91.57 Y95.273 E5.62812
G1 X91.987 Y95.13 E5.64645
G1 X92.391 Y94.955 E5.66476
G1 X92.779 Y94.747 E5.68306
G1 X93.15 Y94.509 E5.70139
G1 X93.499 Y94.243 E5.71963
G1 X93.828 Y93.949 E5.73797
G1 X94.132 Y93.631 E5.75626
G1 X94.409 Y93.289 E5.77456
G1 X94.658 Y92.926 E5.79286
G1 X94.876 Y92.544 E5.81115
G1 X95.064 Y92.146 E5.82945
G1 X95.219 Y91.735 E5.84771
G1 X95.34 Y91.316 E5.86584
G1 X95.39 Y91.092 E5.87538
G1 X95.46 Y90.662 E5.8935
G1 X95.495 Y90.224 E5.91176
G1 X95.497 Y89.784 E5.93006
G1 X95.462 Y89.344 E5.94841
G1 X95.391 Y88.91 E5.96669
G1 X95.288 Y88.483 E5.98495
G1 X95.149 Y88.065 E6.00327
G1 X94.978 Y87.659 E6.02158
G1 X94.774 Y87.268 E6.03992
G1 X94.541 Y86.896 E6.05817
G1 X94.278 Y86.544 E6.07644
G1 X93.988 Y86.212 E6.09476
G1 X93.672 Y85.904 E6.11311
G1 X93.333 Y85.625 E6.13136
G1 X92.972 Y85.372 E6.14969
G1 X92.592 Y85.149 E6.16801
G1 X92.197 Y84.958 E6.18625
G1 X91.786 Y84.799 E6.20457
G1 X91.371 Y84.675 E6.22258
G1 X91.147 Y84.621 E6.23216
G1 X90.721 Y84.548 E6.25013
G1 X90.493 Y84.522 E6.25967
G1 X90.065 Y84.501 E6.27748
G1 X89.835 Y84.501 E6.28705
G1 X89.399 Y84.532 E6.30522
G1 X88.963 Y84.598 E6.32355
G1 X88.536 Y84.698 E6.34178
G1 X88.116 Y84.831 E6.3601
G1 X87.709 Y84.999 E6.37841
G1 X87.317 Y85.198 E6.39668
G1 X86.941 Y85.428 E6.41501
G1 X86.587 Y85.688 E6.43327
G1 X86.251 Y85.975 E6.45164
G1 X85.942 Y86.287 E6.4699
G1 X85.658 Y86.623 E6.48819
G1 X85.401 Y86.982 E6.50654
G1 X85.176 Y87.359 E6.5248
G1 X84.98 Y87.753 E6.54309
G1 X84.817 Y88.162 E6.5614
G1 X84.687 Y88.581 E6.57964
G1 X84.59 Y89.011 E6.59796
G1 X84.529 Y89.443 E6.6161
G1 X84.51 Y89.671 E6.62561
G1 X84.501 Y90.106 E6.6437
G1 X84.526 Y90.545 E6.66198
G1 X84.588 Y90.982 E6.68033
G1 X84.683 Y91.411 E6.6986
G1 X84.813 Y91.831 E6.71688
G1 X84.976 Y92.241 E6.73522
G1 X85.172 Y92.635 E6.75352
G1 X85.397 Y93.012 E6.77177
G1 X85.654 Y93.371 E6.79013
G1 X85.937 Y93.707 E6.80839
G1 X86.246 Y94.021 E6.82671
G1 X86.58 Y94.308 E6.84502
G1 X86.935 Y94.568 E6.86331
G1 X87.311 Y94.798 E6.88164
G1 X87.703 Y94.997 E6.89991
G1 X88.11 Y95.165 E6.91822
G1 X88.529 Y95.299 E6.93651
G1 X88.957 Y95.4 E6.95479
G1 X89.393 Y95.466 E6.97312
G1 X89.831 Y95.497 E6.99138
G1 X90.271 Y95.495 E7.00967
G0 F1800 X90.47 Y95.477
G0 X90.479 Y95.576
G0 X96.93 Y96.93
G0 X97 Y97
G1 F1200 X83 Y97 E7.59173
G1 X83 Y83 E8.17378
G1 X97 Y83 E8.75583
G1 X97 Y97 E9.33788
G0 F1800 X96.8 Y97
G0 X96.8 Y96.9
G0 X95.51 Y95.51
M104 S220
;TYPE:SKIN
G1 F1200 X94.295 Y95.51 E9.43891
G1 X94.449 Y95.393 E9.45499
G1 X94.865 Y95.021 E9.5014
G1 X95.252 Y94.616 E9.54797
G1 X95.51 Y94.296 E9.58215
G1 X95.51 Y95.51 E9.6831
G0 F1800 X95.51 Y85.703
G1 F1200 X95.437 Y85.606 E9.69319
G1 X95.07 Y85.187 E9.73951
G1 X94.667 Y84.793 E9.78637
G1 X94.298 Y84.49 E9.82607
G1 X95.51 Y84.49 E9.92685
G1 X95.51 Y85.703 E10.02771
G0 F1800 X90.726 Y84.509
G0 X89.834 Y84.462
G0 X88.775 Y84.622
G0 X84.49 Y85.696
G1 F1200 X84.49 Y84.49 E10.12799
G1 X85.701 Y84.49 E10.22869
G1 X85.236 Y84.882 E10.27926
G1 X84.842 Y85.281 E10.32588
G1 X84.49 Y85.696 E10.37113
G0 F1800 X84.487 Y90.548
G0 X84.65 Y91.282
G0 X85.699 Y95.51
G1 F1200 X84.49 Y95.51 E10.47166
G1 X84.49 Y94.301 E10.57219
G1 X84.834 Y94.711 E10.61669
G1 X85.227 Y95.111 E10.66332
G1 X85.699 Y95.51 E10.71471
;MESH:NONMESH
G0 F1800 X84.549 Y90.989
G0 X84.471 Y89.669
G0 X84.649 Y88.571
G0 X85.141 Y87.34
G0 X85.577 Y86.729
G0 X86.19 Y85.895
G0 X86.255 Y85.97
;TIME_ELAPSED:33.096091
;LAYER:1
M140 S100
M106 S102
;MESH:тестовый кубик.stl
G0 F2700 X86.255 Y85.97 Z0.25
;TYPE:WALL-OUTER
G1 F1200 X85.946 Y86.283 E10.74214
G1 X85.661 Y86.619 E10.76961
G1 X85.405 Y86.977 E10.79706
G1 X85.178 Y87.355 E10.82456
G1 X84.982 Y87.748 E10.85195
G1 X84.819 Y88.156 E10.87935
G1 X84.688 Y88.576 E10.90678
G1 X84.591 Y89.006 E10.93427
G1 X84.529 Y89.442 E10.96174
G1 X84.502 Y89.88 E10.9891
G1 X84.508 Y90.32 E11.01654
G1 X84.551 Y90.759 E11.04405
G1 X84.631 Y91.193 E11.07157
G1 X84.743 Y91.617 E11.09892
G1 X84.887 Y92.026 E11.12596
G1 X84.976 Y92.24 E11.14042
G1 X85.17 Y92.63 E11.16758
G1 X85.394 Y93.008 E11.19498
G1 X85.65 Y93.366 E11.22243
G1 X85.933 Y93.704 E11.24992
G1 X86.243 Y94.017 E11.27739
G1 X86.577 Y94.305 E11.3049
G1 X86.931 Y94.565 E11.33229
G1 X87.306 Y94.795 E11.35972
G1 X87.698 Y94.994 E11.38714
G1 X88.104 Y95.163 E11.41456
G1 X88.523 Y95.298 E11.44202
G1 X88.952 Y95.399 E11.4695
G1 X89.387 Y95.465 E11.49694
G1 X89.825 Y95.497 E11.52433
G1 X90.265 Y95.495 E11.55177
G1 X90.704 Y95.456 E11.57925
G1 X91.139 Y95.381 E11.60678
G1 X91.565 Y95.274 E11.63417
G1 X91.981 Y95.131 E11.66161
G1 X92.386 Y94.957 E11.6891
G1 X92.775 Y94.749 E11.7166
G1 X93.145 Y94.513 E11.74397
G1 X93.491 Y94.25 E11.77108
G1 X93.666 Y94.101 E11.78541
G1 X93.98 Y93.797 E11.81267
G1 X94.265 Y93.471 E11.83967
G1 X94.408 Y93.291 E11.85401
G1 X94.655 Y92.93 E11.88128
G1 X94.874 Y92.549 E11.90869
G1 X95.061 Y92.151 E11.93611
G1 X95.218 Y91.74 E11.96355
G1 X95.34 Y91.316 E11.99107
G1 X95.428 Y90.885 E12.0185
G1 X95.48 Y90.454 E12.04557
G1 X95.496 Y90.21 E12.06082
G1 X95.497 Y89.789 E12.08708
G1 X95.463 Y89.35 E12.11453
G1 X95.392 Y88.915 E12.14202
G1 X95.289 Y88.488 E12.16941
G1 X95.151 Y88.07 E12.19687
G1 X94.98 Y87.663 E12.2244
G1 X94.776 Y87.273 E12.25184
G1 X94.544 Y86.901 E12.27919
G1 X94.282 Y86.548 E12.3066
G1 X93.992 Y86.216 E12.33409
G1 X93.676 Y85.908 E12.36161
G1 X93.341 Y85.632 E12.38868
G1 X93.157 Y85.496 E12.40295
G1 X92.79 Y85.261 E12.43012
G1 X92.401 Y85.052 E12.45766
G1 X92.003 Y84.879 E12.48473
G1 X91.788 Y84.799 E12.49903
G1 X91.37 Y84.674 E12.52624
G1 X90.94 Y84.581 E12.55368
G1 X90.509 Y84.524 E12.58079
G1 X90.28 Y84.507 E12.59511
G1 X89.845 Y84.501 E12.62224
G1 X89.405 Y84.531 E12.64974
G1 X88.969 Y84.597 E12.67724
G1 X88.541 Y84.696 E12.70464
G1 X88.122 Y84.83 E12.73207
G1 X87.714 Y84.997 E12.75957
G1 X87.321 Y85.196 E12.78704
G1 X86.946 Y85.425 E12.81444
G1 X86.591 Y85.684 E12.84184
G1 X86.255 Y85.97 E12.86936
G0 F2700 X86.115 Y86.112
G0 X86.044 Y86.041
G0 X87.302 Y85.162
G0 X88.531 Y84.658
G0 X89.844 Y84.462
G0 X90.946 Y84.542
G0 X92.017 Y84.842
G0 X93.179 Y85.464
G0 X94.021 Y86.189
G0 X94.81 Y87.254
G0 X95.327 Y88.478
G0 X96.93 Y96.93
G0 X97 Y97
G1 F1200 X83 Y97 E13.74244
G1 X83 Y83 E14.61552
G1 X97 Y83 E15.4886
G1 X97 Y97 E16.36168
G0 F2700 X96.8 Y97
G0 X96.8 Y96.9
G0 X95.51 Y95.51
;TYPE:SKIN
G1 F1200 X94.296 Y95.51 E16.51309
G1 X94.427 Y95.411 E16.53357
G1 X94.669 Y95.204 E16.57329
G1 X95.061 Y94.825 E16.6413
G1 X95.409 Y94.425 E16.70743
G1 X95.51 Y94.299 E16.72757
G1 X95.51 Y95.51 E16.87861
G0 F2700 X95.51 Y85.702
G1 F1200 X95.443 Y85.612 E16.89261
G1 X95.074 Y85.191 E16.96243
G1 X94.672 Y84.797 E17.03264
G1 X94.298 Y84.49 E17.09299
G1 X95.51 Y84.49 E17.24415
G1 X95.51 Y85.702 E17.39532
G0 F2700 X90.946 Y84.542
G0 X89.844 Y84.462
G0 X88.782 Y84.62
G0 X84.49 Y85.695
G1 F1200 X84.49 Y84.49 E17.54562
G1 X85.699 Y84.49 E17.69641
G1 X85.239 Y84.877 E17.77139
G1 X84.846 Y85.276 E17.84124
G1 X84.49 Y85.695 E17.90981
G0 F2700 X84.469 Y90.322
G0 X84.659 Y91.379
G0 X85.701 Y95.51
G1 F1200 X84.49 Y95.51 E18.06086
G1 X84.49 Y94.302 E18.21152
G1 X84.831 Y94.708 E18.27765
G1 X85.226 Y95.107 E18.34768
G1 X85.648 Y95.471 E18.41719
G1 X85.701 Y95.51 E18.4254
;MESH:NONMESH
G0 F2700 X90.486 Y95.576
G0 X90.479 Y95.481
;TIME_ELAPSED:39.882153
;LAYER:2
M106 S204
;MESH:тестовый кубик.stl
G0 F3600 X90.479 Y95.481 Z0.4
;TYPE:WALL-OUTER
G1 F1200 X90.916 Y95.424 E18.45288
G1 X91.347 Y95.333 E18.48035
G1 X91.769 Y95.209 E18.50778
G1 X92.18 Y95.05 E18.53526
G1 X92.575 Y94.86 E18.5626
G1 X92.956 Y94.639 E18.59007
G1 X93.318 Y94.387 E18.61757
G1 X93.658 Y94.108 E18.645
G1 X93.975 Y93.802 E18.67248
G1 X94.266 Y93.472 E18.69992
G1 X94.526 Y93.124 E18.72701
G1 X94.654 Y92.932 E18.7414
G1 X94.87 Y92.554 E18.76855
G1 X95.059 Y92.158 E18.79591
G1 X95.215 Y91.746 E18.82339
G1 X95.339 Y91.323 E18.85088
G1 X95.427 Y90.892 E18.87831
G1 X95.48 Y90.46 E18.90545
G1 X95.496 Y90.203 E18.92151
G1 X95.497 Y89.795 E18.94695
G1 X95.463 Y89.356 E18.97441
G1 X95.394 Y88.922 E19.00182
G1 X95.29 Y88.495 E19.02923
G1 X95.155 Y88.082 E19.05632
G1 X95.07 Y87.867 E19.07074
G1 X94.885 Y87.473 E19.09789
G1 X94.669 Y87.091 E19.12525
G1 X94.421 Y86.727 E19.15272
G1 X94.144 Y86.384 E19.18022
G1 X93.842 Y86.064 E19.20766
G1 X93.514 Y85.769 E19.23517
G1 X93.169 Y85.506 E19.26222
G1 X92.979 Y85.376 E19.27658
G1 X92.603 Y85.155 E19.30378
G1 X92.208 Y84.963 E19.33116
G1 X91.797 Y84.802 E19.35869
G1 X91.376 Y84.676 E19.3861
G1 X90.946 Y84.582 E19.41355
G1 X90.51 Y84.524 E19.44098
G1 X90.071 Y84.501 E19.46839
G1 X89.631 Y84.511 E19.49584
G1 X89.192 Y84.558 E19.52337
G1 X88.761 Y84.641 E19.55074
G1 X88.336 Y84.757 E19.57822
G1 X87.922 Y84.907 E19.60568
G1 X87.523 Y85.089 E19.63303
G1 X87.136 Y85.303 E19.66061
G1 X86.771 Y85.548 E19.68802
G1 X86.425 Y85.819 E19.71543
G1 X86.102 Y86.119 E19.74292
G1 X85.809 Y86.44 E19.77002
G1 X85.663 Y86.617 E19.78433
G1 X85.408 Y86.972 E19.81159
G1 X85.181 Y87.349 E19.83903
G1 X84.988 Y87.737 E19.86606
G1 X84.897 Y87.95 E19.8805
G1 X84.751 Y88.36 E19.90765
G1 X84.637 Y88.783 E19.93497
G1 X84.557 Y89.217 E19.96249
G1 X84.512 Y89.654 E19.98988
G1 X84.501 Y90.087 E20.0169
G1 X84.508 Y90.318 E20.03131
G1 X84.55 Y90.753 E20.05856
G1 X84.628 Y91.186 E20.086
G1 X84.741 Y91.612 E20.11349
G1 X84.886 Y92.026 E20.14084
G1 X85.064 Y92.429 E20.16832
G1 X85.273 Y92.812 E20.19553
G1 X85.393 Y93.006 E20.20975
G1 X85.646 Y93.362 E20.23699
G1 X85.929 Y93.699 E20.26443
G1 X86.238 Y94.012 E20.29186
G1 X86.571 Y94.3 E20.31932
G1 X86.926 Y94.561 E20.3468
G1 X87.301 Y94.791 E20.37423
G1 X87.692 Y94.991 E20.40162
G1 X88.099 Y95.161 E20.42913
G1 X88.518 Y95.296 E20.45658
G1 X88.94 Y95.396 E20.48362
G1 X89.166 Y95.436 E20.49794
G1 X89.6 Y95.485 E20.52517
G1 X90.038 Y95.499 E20.5525
G1 X90.479 Y95.481 E20.58003
G0 F3600 X90.677 Y95.456
G0 X90.688 Y95.555
G0 X96.93 Y96.93
G0 X97 Y97
G1 F1200 X83 Y97 E21.45311
