;FLAVOR:RepRap
;TIME:8355
;Generated with Cura_SteamEngine 2.3.1
M190 S110
M104 S240
M109 S240
G28 ;Home
G1 Z10.0 F6000 ;Move the platform down 15mm
;Prime the extruder
G92 E0
G1 F200 E5
G92 E0
;LAYER_COUNT:209
;LAYER:0
M107
G1 F1800 E-3
G0 F600 X29.806 Y28.381 Z.1
G0 X29.53 Y28.785
;TYPE:SKIRT
G1 F1800 E0
G1 F900 X29.806 Y28.381 E0.00814
G1 X30.144 Y28.026 E0.01629
G1 X30.58 Y27.705 E0.02529
G1 X36.894 Y23.866 E0.14818
G1 X41.398 Y20.71 E0.23964
G1 X45.689 Y17.325 E0.33053
G1 X49.819 Y13.669 E0.42226
G1 X52.705 Y10.853 E0.48931
G1 X53.082 Y10.541 E0.49745
G1 X53.505 Y10.294 E0.5056
G1 X53.962 Y10.119 E0.51374
G1 X54.441 Y10.022 E0.52186
G1 X54.826 Y10 E0.52828
G1 X66.792 Y10.102 E0.72728
G1 X67.118 Y10.123 E0.73271
G1 X71.174 Y10.602 E0.80063
G1 X76.683 Y10.991 E0.89247
G1 X82.173 Y11.068 E0.98378
G1 X87.644 Y10.835 E1.07485
G1 X93.144 Y10.288 E1.16676
G1 X95.407 Y10.012 E1.20468
G1 X95.773 Y9.99 E1.21078
G1 X107.389 Y10 E1.40395
G1 X107.876 Y10.04 E1.41208
G1 X108.351 Y10.16 E1.42022
G1 X108.8 Y10.354 E1.42836
G1 X109.212 Y10.619 E1.4365
G1 X109.574 Y10.948 E1.44464
G1 X109.879 Y11.331 E1.45278
G1 X110.117 Y11.759 E1.46093
G1 X110.283 Y12.22 E1.46907
G1 X110.371 Y12.701 E1.47721
G1 X110.386 Y13.001 E1.4822
G1 X110.382 Y24.86 E1.67942
G1 X110.373 Y25.088 E1.68321
G1 X109.816 Y32.373 E1.80472
G1 X109.75 Y37.858 E1.89594
G1 X109.995 Y43.359 E1.98751
G1 X110.378 Y47.526 E2.0571
G1 X110.391 Y47.801 E2.06168
G1 X110.386 Y59.715 E2.25981
G1 X110.346 Y60.203 E2.26795
G1 X110.227 Y60.678 E2.2761
G1 X110.032 Y61.127 E2.28424
G1 X109.767 Y61.539 E2.29238
G1 X109.439 Y61.902 E2.30052
G1 X109.056 Y62.206 E2.30865
G1 X108.628 Y62.445 E2.3168
G1 X108.22 Y62.596 E2.32404
G1 X99.985 Y64.98 E2.46661
G1 X97.428 Y65.862 E2.51159
G1 X92.571 Y67.75 E2.59825
G1 X92.101 Y67.89 E2.60641
G1 X91.493 Y67.954 E2.61657
G1 X88.241 Y67.964 E2.67065
G1 X87.585 Y67.893 E2.68163
G1 X80.849 Y66.405 E2.79635
G1 X75.417 Y65.553 E2.88779
G1 X69.965 Y65.01 E2.9789
G1 X64.495 Y64.778 E3.06995
G1 X59.003 Y64.856 E3.16129
G1 X53.52 Y65.243 E3.2527
G1 X48.072 Y65.94 E3.34404
G1 X42.702 Y66.938 E3.43487
G1 X37.342 Y68.252 E3.52665
G1 X33.602 Y69.361 E3.59152
G1 X33.123 Y69.462 E3.59966
G1 X32.634 Y69.483 E3.6078
G1 X32.148 Y69.424 E3.61595
G1 X31.678 Y69.287 E3.62409
G1 X31.237 Y69.076 E3.63222
G1 X30.835 Y68.796 E3.64036
G1 X30.431 Y68.389 E3.6499
G1 X29.129 Y66.804 E3.68401
G1 X28.894 Y66.475 E3.69074
G1 X26.988 Y63.385 E3.75111
G1 X26.766 Y62.949 E3.75925
G1 X26.617 Y62.482 E3.7674
G1 X26.547 Y61.998 E3.77553
G1 X26.56 Y61.476 E3.78422
G1 X26.998 Y57.568 E3.84961
G1 X27.357 Y52.058 E3.94144
G1 X27.404 Y46.583 E4.03249
G1 X27.14 Y41.091 E4.12393
G1 X26.564 Y35.565 E4.21633
G1 X26.553 Y35.076 E4.22446
G1 X26.622 Y34.591 E4.23261
G1 X26.843 Y33.956 E4.24379
G1 X28.167 Y31.196 E4.2947
G1 X28.264 Y31.011 E4.29817
G1 X29.53 Y28.785 E4.34076
G0 F600 X29.878 Y28.983
G1 F900 X30.137 Y28.608 E4.34834
G1 X30.458 Y28.284 E4.35592
G1 X30.787 Y28.046 E4.36267
G1 X37.134 Y24.187 E4.4862
G1 X41.63 Y21.037 E4.5775
G1 X45.947 Y17.63 E4.66895
G1 X50.081 Y13.972 E4.76075
G1 X52.984 Y11.139 E4.82821
G1 X53.337 Y10.851 E4.83578
G1 X53.734 Y10.628 E4.84336
G1 X54.165 Y10.479 E4.85094
G1 X54.822 Y10.4 E4.86195
G1 X66.788 Y10.502 E5.06095
G1 X67.071 Y10.52 E5.06566
G1 X71.143 Y11.001 E5.13385
G1 X76.666 Y11.391 E5.22593
G1 X82.167 Y11.468 E5.31742
G1 X87.684 Y11.233 E5.40925
G1 X93.188 Y10.685 E5.50124
G1 X95.456 Y10.409 E5.53923
G1 X95.772 Y10.39 E5.5445
G1 X107.388 Y10.4 E5.73767
G1 X107.842 Y10.44 E5.74525
G1 X108.282 Y10.559 E5.75283
G1 X108.694 Y10.753 E5.7604
G1 X109.066 Y11.016 E5.76798
G1 X109.387 Y11.34 E5.77556
G1 X109.646 Y11.715 E5.78314
G1 X109.836 Y12.129 E5.79072
G1 X109.95 Y12.57 E5.79829
G1 X109.986 Y13.001 E5.80549
G1 X109.982 Y24.86 E6.0027
G1 X109.974 Y25.057 E6.00598
G1 X109.416 Y32.353 E6.12767
G1 X109.35 Y37.871 E6.21944
G1 X109.595 Y43.37 E6.31098
G1 X109.98 Y47.562 E6.38099
G1 X109.991 Y47.801 E6.38496
G1 X109.986 Y59.715 E6.58309
G1 X109.946 Y60.169 E6.59067
G1 X109.827 Y60.609 E6.59825
G1 X109.633 Y61.021 E6.60583
G1 X109.371 Y61.394 E6.61341
G1 X109.047 Y61.714 E6.62098
G1 X108.672 Y61.973 E6.62856
G1 X108.109 Y62.211 E6.63872
G1 X99.875 Y64.594 E6.78128
G1 X97.287 Y65.488 E6.82681
G1 X92.426 Y67.377 E6.91354
G1 X91.988 Y67.505 E6.92113
G1 X91.492 Y67.554 E6.92942
G1 X88.24 Y67.564 E6.9835
G1 X87.671 Y67.503 E6.99301
G1 X80.915 Y66.011 E7.10807
G1 X75.464 Y65.155 E7.19983
G1 X70.004 Y64.612 E7.29108
G1 X64.489 Y64.378 E7.38288
G1 X58.985 Y64.456 E7.47442
G1 X53.479 Y64.845 E7.56621
G1 X48.017 Y65.543 E7.65779
G1 X42.606 Y66.55 E7.74932
G1 X37.254 Y67.861 E7.84095
G1 X33.488 Y68.978 E7.90628
G1 X33.042 Y69.068 E7.91384
G1 X32.586 Y69.08 E7.92143
G1 X32.136 Y69.012 E7.929
G1 X31.704 Y68.866 E7.93658
G1 X31.305 Y68.647 E7.94415
G1 X30.949 Y68.362 E7.95174
G1 X30.74 Y68.135 E7.95687
G1 X29.438 Y66.55 E7.99098
G1 X29.234 Y66.265 E7.99681
G1 X27.328 Y63.175 E8.05718
G1 X27.124 Y62.768 E8.06475
G1 X26.994 Y62.331 E8.07234
G1 X26.942 Y61.878 E8.07992
G1 X26.957 Y61.521 E8.08586
G1 X27.399 Y57.576 E8.15188
G1 X27.757 Y52.088 E8.24334
G1 X27.804 Y46.568 E8.33514
G1 X27.539 Y41.064 E8.42678
G1 X26.962 Y35.523 E8.51942
G1 X26.955 Y35.068 E8.52699
G1 X27.027 Y34.618 E8.53457
G1 X27.204 Y34.129 E8.54322
G1 X28.528 Y31.369 E8.59412
G1 X28.612 Y31.209 E8.59713
G1 X29.878 Y28.983 E8.63972
G0 F600 X30.226 Y29.18
G1 F900 X30.467 Y28.838 E8.64667
G1 X30.768 Y28.547 E8.65364
G1 X30.995 Y28.388 E8.65824
G1 X37.339 Y24.531 E8.78171
G1 X41.873 Y21.354 E8.87378
G1 X46.215 Y17.928 E8.96576
G1 X50.342 Y14.276 E9.05741
G1 X53.263 Y11.425 E9.12529
G1 X53.59 Y11.163 E9.13225
G1 X53.96 Y10.967 E9.13922
G1 X54.361 Y10.844 E9.14619
G1 X54.819 Y10.8 E9.15384
G1 X66.785 Y10.902 E9.35285
G1 X67.024 Y10.917 E9.35683
G1 X71.11 Y11.399 E9.42525
G1 X76.65 Y11.791 E9.51761
G1 X82.178 Y11.868 E9.60955
G1 X87.704 Y11.633 E9.70153
G1 X93.231 Y11.083 E9.7939
G1 X95.504 Y10.806 E9.83198
G1 X95.772 Y10.79 E9.83645
G1 X107.388 Y10.8 E10.02962
G1 X107.805 Y10.84 E10.03659
G1 X108.207 Y10.959 E10.04356
G1 X108.579 Y11.152 E10.05053
G1 X108.908 Y11.411 E10.05749
G1 X109.181 Y11.729 E10.06446
G1 X109.39 Y12.092 E10.07143
G1 X109.526 Y12.489 E10.07841
G1 X109.586 Y13.001 E10.08698
G1 X109.582 Y24.86 E10.2842
G1 X109.576 Y25.027 E10.28697
G1 X109.016 Y32.349 E10.4091
G1 X108.95 Y37.867 E10.50087
G1 X109.197 Y43.404 E10.59304
G1 X109.582 Y47.599 E10.6631
G1 X109.591 Y47.801 E10.66646
G1 X109.586 Y59.715 E10.86459
G1 X109.546 Y60.132 E10.87156
G1 X109.427 Y60.534 E10.87853
G1 X109.235 Y60.906 E10.88549
G1 X108.975 Y61.235 E10.89246
G1 X108.658 Y61.509 E10.89943
G1 X108.295 Y61.718 E10.9064
G1 X107.998 Y61.827 E10.91166
G1 X99.754 Y64.213 E11.05438
G1 X97.161 Y65.108 E11.1
G1 X92.281 Y67.005 E11.18707
G1 X91.878 Y67.118 E11.19403
G1 X91.491 Y67.154 E11.2005
G1 X88.239 Y67.164 E11.25458
G1 X87.758 Y67.112 E11.26262
G1 X80.986 Y65.616 E11.37796
G1 X75.531 Y64.76 E11.46978
G1 X70.025 Y64.212 E11.5618
G1 X64.5 Y63.978 E11.65376
G1 X58.97 Y64.056 E11.74574
G1 X53.435 Y64.447 E11.83801
G1 X47.965 Y65.146 E11.92972
G1 X42.526 Y66.158 E12.02172
G1 X37.133 Y67.479 E12.11406
G1 X33.375 Y68.594 E12.17925
G1 X32.963 Y68.675 E12.18623
G1 X32.544 Y68.675 E12.1932
G1 X32.133 Y68.597 E12.20016
G1 X31.743 Y68.442 E12.20714
G1 X31.391 Y68.216 E12.21409
G1 X31.049 Y67.881 E12.22206
G1 X29.747 Y66.296 E12.25617
G1 X29.575 Y66.055 E12.26109
G1 X27.669 Y62.965 E12.32147
G1 X27.484 Y62.589 E12.32844
G1 X27.373 Y62.185 E12.3354
G1 X27.355 Y61.565 E12.34572
G1 X27.796 Y57.623 E12.41168
G1 X28.156 Y52.099 E12.50374
G1 X28.205 Y46.552 E12.59599
G1 X27.939 Y41.04 E12.68776
G1 X27.36 Y35.482 E12.78069
G1 X27.356 Y35.063 E12.78766
G1 X27.432 Y34.651 E12.79463
G1 X27.564 Y34.302 E12.80084
G1 X28.888 Y31.542 E12.85174
G1 X28.96 Y31.406 E12.8543
G1 X30.226 Y29.18 E12.89689
G0 F600 X31.456 Y31.824
;TYPE:SUPPORT
G1 X32.217 Y30.501 E12.92227
G1 X32.471 Y30.567 E12.92663
G1 X32.474 Y32.775 E12.96335
G1 X32.423 Y34.316 E12.98899
G1 X32.342 Y34.874 E12.99837
G1 X32.294 Y35.053 E13.00145
G1 X29.849 Y35.053 E13.04211
G1 X29.904 Y34.932 E13.04432
G1 X29.923 Y34.88 E13.04524
G1 X30.383 Y33.894 E13.06334
G1 X30.994 Y32.695 E13.08572
G1 X31.129 Y32.433 E13.09062
G1 X31.192 Y32.313 E13.09287
G1 X31.315 Y32.063 E13.09751
G1 X31.456 Y31.824 E13.10212
G0 X54.996 Y24.545
G1 X54.996 Y13.19 E13.29096
G1 X55.602 Y13.19 E13.30103
G1 X55.867 Y13.29 E13.30574
G1 X66.551 Y13.29 E13.48342
G1 X66.551 Y24.346 E13.66728
G1 X66.75 Y24.545 E13.67196
G1 X54.996 Y24.545 E13.86743
G0 X95.64 Y24.346
G1 X95.64 Y13.19 E14.05296
G1 X107.195 Y13.19 E14.24512
G1 X107.195 Y24.565 E14.43428
G1 X107.121 Y24.545 E14.43556
G1 X95.441 Y24.545 E14.6298
G1 X95.64 Y24.346 E14.63448
G0 X96 Y24.395
G1 X96 Y13.34 E14.81832
G0 X95.789 Y18
G1 X107.044 Y18 E15.00549
G0 X107.044 Y24
G1 X95.789 Y24 E15.19267
G0 X102 Y24.395
G1 X102 Y13.34 E15.37651
G0 X66.4 Y18
G1 X55.145 Y18 E15.56368
G0 X55.145 Y24
G1 X66.4 Y24 E15.75085
G0 X66 Y24.395
G1 X66 Y13.44 E15.93304
G0 X60 Y13.44
G1 X60 Y24.395 E16.11522
G0 X67.446 Y37.756
G1 X69.716 Y36.509 E16.15829
G1 X70.74 Y35.946 E16.17772
G1 X74.352 Y34.824 E16.24062
G1 X75.755 Y34.682 E16.26407
G1 X76.417 Y34.615 E16.27514
G1 X78.095 Y34.446 E16.30319
G1 X81.836 Y34.824 E16.36572
G1 X83.832 Y35.444 E16.40047
G1 X85.46 Y35.95 E16.42883
G1 X87.414 Y37.023 E16.4659
G1 X88.182 Y37.446 E16.48048
G1 X88.39 Y37.558 E16.48441
G1 X88.756 Y37.758 E16.49134
G1 X90.967 Y39.636 E16.53959
G1 X91.204 Y39.837 E16.54475
G1 X91.619 Y40.191 E16.55382
G1 X93.921 Y43.12 E16.61578
G1 X94.852 Y44.937 E16.64973
G1 X95.673 Y46.568 E16.6801
G1 X96.463 Y47.575 E16.70138
G1 X97.201 Y47.798 E16.7142
G1 X97.666 Y47.945 E16.72231
G1 X107.121 Y47.945 E16.87955
G1 X107.195 Y47.925 E16.88082
G1 X107.195 Y59.575 E17.07456
G1 X92.892 Y63.4 E17.32078
G1 X91.384 Y64.774 E17.35471
G1 X88.373 Y64.774 E17.40478
G1 X84.621 Y51.955 E17.62691
G1 X83.85 Y50.339 E17.65668
G1 X82.499 Y48.946 E17.68895
G1 X80.785 Y48.049 E17.72113
G1 X78.95 Y47.745 E17.75206
G1 X66.95 Y47.745 E17.95162
G1 X66.551 Y48.144 E17.961
G1 X66.551 Y59.2 E18.14487
G1 X60.806 Y59.2 E18.2404
G1 X60.418 Y59.3 E18.24707
G1 X54.996 Y59.3 E18.33724
G1 X54.996 Y47.945 E18.52607
G1 X58.506 Y47.945 E18.58444
G1 X59.823 Y47.545 E18.60733
G1 X60.189 Y47.235 E18.61531
G1 X60.531 Y46.543 E18.62815
G1 X61.583 Y44.449 E18.66712
G1 X62.231 Y43.164 E18.69105
G1 X64.387 Y40.422 E18.74906
G1 X64.563 Y40.199 E18.75378
G1 X67.446 Y37.756 E18.81662
G1 F1800 E15.81662
G0 F600 X66 Y39.177
G1 F1800 E18.81662
G1 F600 X66 Y59.05 E19.14711
G0 X66.4 Y54
G1 X55.145 Y54 E19.33428
G0 X58.836 Y48
G1 X66.48 Y48 E19.46141
G0 X72 Y47.595
G1 X72 Y35.711 E19.65904
G1 F1800 E16.65904
G0 F600 X71.069 Y36
G1 F1800 E19.65904
G1 F600 X85.117 Y36 E19.89266
G1 F1800 E16.89266
G0 F600 X84 Y35.654
G1 F1800 E19.89266
G1 F600 X84 Y50.305 E20.1363
G0 X81.016 Y48
G1 X97.346 Y48 E20.40787
G1 F1800 E17.40787
G0 F600 X96 Y47.229
G1 F1800 E20.40787
G1 F600 X96 Y62.415 E20.66042
G0 X102 Y60.809
G1 X102 Y48.095 E20.87185
G0 X107.044 Y54
G1 X85.375 Y54 E21.23221
G0 X87.131 Y60
G1 X105.018 Y60 E21.52967
G0 X90 Y64.624
G1 X90 Y39.013 E21.95558
G0 X92.851 Y42
G1 X63.335 Y42 E22.44644
G0 X60 Y47.591
G1 X60 Y59.15 E22.63866
G0 X78 Y47.595
G1 X78 Y34.606 E22.85467
G0 X32.894 Y62.011
G1 X32.901 Y62.442 E22.86184
G1 X32.901 Y63.027 E22.87157
G1 X32.898 Y66.221 E22.92468
G1 X32.797 Y66.261 E22.92649
G1 X32.455 Y65.883 E22.93497
G1 X31.625 Y64.82 E22.9574
G1 X31.153 Y64.109 E22.97159
G1 X30.534 Y63.18 E22.99015
G1 X29.873 Y62.011 E23.01249
G1 X32.894 Y62.011 E23.06273
G0 X97.983 Y32.327
G1 X97.951 Y32.271 E23.0638
G1 X98.115 Y31.332 E23.07965
G1 X98.841 Y30.721 E23.09543
G1 X99.789 Y30.721 E23.1112
G1 X100.515 Y31.332 E23.12698
G1 X100.679 Y32.268 E23.14278
G1 X100.206 Y33.087 E23.15851
G1 X99.314 Y33.412 E23.1743
G1 X98.423 Y33.087 E23.19007
G1 X98.189 Y32.682 E23.19785
G1 X97.983 Y32.327 E23.20467
;TIME_ELAPSED:160.139097
;LAYER:1
M106 S25.5
G0 F900 X98.681 Y32.138 Z.3
;TYPE:SUPPORT
G1 F2100 X98.757 Y31.705 E23.21929
G1 X99.096 Y31.42 E23.23402
G0 F900 X99.534 Y31.42
G1 F2100 X99.872 Y31.704 E23.24871
G1 X99.948 Y32.138 E23.26336
G1 X99.729 Y32.518 E23.27795
G1 X99.315 Y32.668 E23.2926
G1 X98.9 Y32.518 E23.30727
G1 X98.681 Y32.138 E23.32186
G1 F1800 E20.32186
G0 F900 X98.512 Y31.617
G0 X98.488 Y31.541
G0 X96.1 Y24.156
G0 X96.075 Y24.08
G0 X96 Y23.846
G1 F1800 E23.32186
G1 F2100 X95.64 Y23.846 E23.33383
G1 X95.64 Y13.19 E23.68825
G0 F900 X96 Y13.19
G1 F2100 X96 Y23.846 E24.04267
G0 F900 X102 Y23.846
G1 F2100 X102 Y13.19 E24.39709
G1 X107.195 Y13.19 E24.56988
G0 F900 X102 Y13.19
G1 F2100 X96 Y13.19 E24.76944
G1 F1800 E21.76944
G0 F900 X108.939 Y24.553
G0 X110.287 Y25.901
G0 X110.759 Y27.658
G0 X110.759 Y44.832
G0 X110.287 Y46.589
G0 X108.939 Y47.937
G0 X107.182 Y48.409
G0 X97.609 Y48.409
G0 X96.183 Y47.963
G0 X85.173 Y36.589
G1 F1800 E24.76944
G1 F2100 X88.354 Y38.337 E24.89016
G1 X90 Y39.734 E24.96197
G1 X90 Y64.774 E25.7948
G1 X91.384 Y64.774 E25.84083
G1 X92.892 Y63.4 E25.90869
G1 X96 Y62.569 E26.01569
G1 X96 Y48.115 E26.49643
G1 X96.042 Y48.168 E26.49868
G1 X97.574 Y48.644 E26.55204
G1 X102 Y48.644 E26.69925
G1 X107.195 Y48.644 E26.87204
G1 X107.195 Y59.575 E27.2356
G0 F900 X102 Y60.965
G1 F2100 X102 Y48.644 E27.6454
G0 F900 X84 Y50.653
G1 F2100 X83.85 Y50.339 E27.65697
G1 X82.499 Y48.946 E27.72152
G1 X80.785 Y48.049 E27.78586
G1 X78.949 Y47.745 E27.84776
G1 X78 Y47.745 E27.87932
G1 X78 Y35.157 E28.298
G1 X74.488 Y35.512 E28.4154
G1 X72 Y36.284 E28.50205
G1 X72 Y47.745 E28.88324
G1 X66.95 Y47.745 E29.05121
G1 X66.551 Y48.144 E29.06997
G1 X66.551 Y59.2 E29.4377
G1 X66 Y59.2 E29.45602
G1 X66 Y39.895 E30.09811
G1 X65.067 Y40.686 E30.13879
G1 X62.827 Y43.533 E30.25928
G1 X61.111 Y46.945 E30.38631
G1 X60.149 Y48.168 E30.43806
G1 X60 Y48.214 E30.44325
G1 X60 Y59.3 E30.81197
G1 X54.996 Y59.3 E30.9784
G1 X54.996 Y48.644 E31.33282
G1 X58.617 Y48.644 E31.45326
G0 F900 X84 Y50.653
G1 F2100 X84 Y36.225 E31.93314
G1 X85.173 Y36.589 E31.97399
G1 F1800 E28.97399
G0 F900 X96.183 Y47.963
G0 X97.609 Y48.409
G0 X107.182 Y48.409
G0 X108.939 Y47.937
G0 X110.287 Y46.589
G0 X110.759 Y44.832
G0 X110.759 Y27.658
G0 X110.287 Y25.901
G0 X108.939 Y24.553
G0 X107.182 Y24.081
G0 X66.551 Y23.846
G1 F1800 E31.97399
G1 F2100 X66.551 Y13.29 E32.32508
G1 X66 Y13.29 E32.34341
G1 X66 Y23.846 E32.6945
G0 F900 X60 Y23.846
G1 F2100 X60 Y13.29 E33.04559
G1 X66 Y13.29 E33.24515
G0 F900 X55.867 Y13.29
G1 F2100 X55.602 Y13.19 E33.25457
G1 X54.996 Y13.19 E33.27473
G1 X54.996 Y23.846 E33.62915
G1 X60 Y23.846 E33.79558
G1 F1800 E30.79558
G0 F900 X52.741 Y23.774
G0 X32.217 Y30.501
G1 F1800 E33.79558
G1 F2100 X31.451 Y31.833 E33.84669
G1 X31.32 Y32.054 E33.85523
G1 X31.182 Y32.332 E33.86556
G1 X31.131 Y32.429 E33.8692
G1 X30.993 Y32.698 E33.87926
G1 X30.384 Y33.89 E33.92378
G1 X30 Y34.716 E33.95408
G1 X30 Y35.053 E33.96528
G1 X29.849 Y35.053 E33.97031
G1 X29.904 Y34.933 E33.9747
G1 X29.923 Y34.882 E33.97651
G0 F900 X29.872 Y62.011
G1 F2100 X30 Y62.237 E33.98515
G1 X30 Y62.011 E33.99266
G1 X32.894 Y62.011 E34.08892
G1 F1800 E31.08892
G0 F900 X51.812 Y47.363
G0 X53.097 Y47.363
G0 X53.177 Y47.263
G0 X53.077 Y47.263
;TYPE:WALL-INNER
G1 F1800 E34.08892
G1 F1200 X53.077 Y47.185 E34.09151
G1 X53.08 Y36.846 E34.43539
G1 X53.498 Y36.836 E34.44929
G1 X53.8 Y36.12 E34.47514
G1 X53.139 Y35.412 E34.50736
G1 X53.137 Y25.545 E34.83553
G1 X53.137 Y25.345 E34.84219
G1 X53.337 Y25.345 E34.84649
G1 X107.018 Y25.345 E36.63193
G1 X108.284 Y25.684 E36.67552
G1 X109.156 Y26.556 E36.71654
G1 X109.495 Y27.822 E36.76013
G1 X109.495 Y44.668 E37.32043
G1 X109.156 Y45.934 E37.36402
G1 X108.284 Y46.806 E37.40504
G1 X107.018 Y47.145 E37.44863
G1 X97.801 Y47.145 E37.75519
G1 X96.933 Y46.875 E37.78542
G1 X96.351 Y46.134 E37.81676
G1 X94.639 Y42.73 E37.94349
G1 X92.208 Y39.64 E38.07426
G1 X89.21 Y37.097 E38.20501
G1 X85.763 Y35.204 E38.33581
G1 X82.008 Y34.036 E38.4666
G1 X78.096 Y33.642 E38.59737
G1 X74.184 Y34.036 E38.72815
G1 X70.428 Y35.204 E38.85897
G1 X66.982 Y37.097 E38.98974
G1 X63.983 Y39.639 E39.1205
G1 X61.551 Y42.73 E39.25131
