; G-Code generated by Simplify3D(R) Version 4.0.1
; Feb 24, 2020 at 11:40:22 PM
; Settings Summary
;   processName,petg
;   applyToModels,тавотница
;   profileName,mi (modified)
;   profileVersion,2020-02-18 19:18:27
;   baseProfile,Default
;   printMaterial,petg
;   printQuality,Medium
;   printExtruders,
;   extruderName,Extruder 1
;   extruderToolheadNumber,0
;   extruderDiameter,0.4
;   extruderAutoWidth,0
;   extruderWidth,0.4
;   extrusionMultiplier,1
;   extruderUseRetract,1
;   extruderRetractionDistance,2
;   extruderExtraRestartDistance,0
;   extruderRetractionZLift,0
;   extruderRetractionSpeed,1200
;   extruderUseCoasting,1
;   extruderCoastingDistance,0.5
;   extruderUseWipe,0
;   extruderWipeDistance,5
;   primaryExtruder,0
;   layerHeight,0.2
;   topSolidLayers,3
;   bottomSolidLayers,3
;   perimeterOutlines,4
;   printPerimetersInsideOut,1
;   startPointOption,2
;   startPointOriginX,0
;   startPointOriginY,0
;   sequentialIslands,0
;   spiralVaseMode,0
;   firstLayerHeightPercentage,60
;   firstLayerWidthPercentage,100
;   firstLayerUnderspeed,0.6
;   useRaft,1
;   raftExtruder,0
;   raftTopLayers,1
;   raftBaseLayers,0
;   raftOffset,8
;   raftSeparationDistance,0.14
;   raftTopInfill,100
;   aboveRaftSpeedMultiplier,0.3
;   useSkirt,1
;   skirtExtruder,0
;   skirtLayers,1
;   skirtOutlines,4
;   skirtOffset,5
;   usePrimePillar,0
;   primePillarExtruder,999
;   primePillarWidth,12
;   primePillarLocation,7
;   primePillarSpeedMultiplier,1
;   useOozeShield,0
;   oozeShieldExtruder,999
;   oozeShieldOffset,2
;   oozeShieldOutlines,1
;   oozeShieldSidewallShape,1
;   oozeShieldSidewallAngle,30
;   oozeShieldSpeedMultiplier,1
;   infillExtruder,0
;   internalInfillPattern,Rectilinear
;   externalInfillPattern,Rectilinear
;   infillPercentage,100
;   outlineOverlapPercentage,50
;   infillExtrusionWidthPercentage,100
;   minInfillLength,5
;   infillLayerInterval,1
;   internalInfillAngles,45,-45
;   overlapInternalInfillAngles,0
;   externalInfillAngles,45,-45
;   generateSupport,0
;   supportExtruder,0
;   supportInfillPercentage,30
;   supportExtraInflation,2
;   supportBaseLayers,0
;   denseSupportExtruder,0
;   denseSupportLayers,0
;   denseSupportInfillPercentage,70
;   supportLayerInterval,1
;   supportHorizontalPartOffset,0.3
;   supportUpperSeparationLayers,1
;   supportLowerSeparationLayers,1
;   supportType,0
;   supportGridSpacing,4
;   maxOverhangAngle,45
;   supportAngles,0
;   temperatureName,Extruder 1,Heated Bed
;   temperatureNumber,0,1
;   temperatureSetpointCount,2,1
;   temperatureSetpointLayers,1,2,1
;   temperatureSetpointTemperatures,210,205,90
;   temperatureStabilizeAtStartup,1,1
;   temperatureHeatedBed,0,1
;   temperatureRelayBetweenLayers,0,0
;   temperatureRelayBetweenLoops,0,0
;   fanLayers,1,3
;   fanSpeeds,0,60
;   blipFanToFullPower,1
;   adjustSpeedForCooling,0
;   minSpeedLayerTime,15
;   minCoolingSpeedSlowdown,40
;   increaseFanForCooling,0
;   minFanLayerTime,45
;   maxCoolingFanSpeed,100
;   increaseFanForBridging,0
;   bridgingFanSpeed,100
;   use5D,1
;   relativeEdistances,0
;   allowEaxisZeroing,1
;   independentExtruderAxes,0
;   includeM10123,0
;   stickySupport,1
;   applyToolheadOffsets,0
;   gcodeXoffset,0
;   gcodeYoffset,0
;   gcodeZoffset,0
;   overrideMachineDefinition,0
;   machineTypeOverride,0
;   strokeXoverride,180
;   strokeYoverride,180
;   strokeZoverride,200
;   originOffsetXoverride,0
;   originOffsetYoverride,0
;   originOffsetZoverride,0
;   homeXdirOverride,-1
;   homeYdirOverride,-1
;   homeZdirOverride,-1
;   flipXoverride,1
;   flipYoverride,-1
;   flipZoverride,1
;   toolheadOffsets,0,0|0,0|0,0|0,0|0,0|0,0
;   overrideFirmwareConfiguration,0
;   firmwareTypeOverride,RepRap (Marlin/Repetier/Sprinter)
;   GPXconfigOverride,r2
;   baudRateOverride,115200
;   overridePrinterModels,0
;   printerModelsOverride
;   startingGcode,G28 ; home all axes,G92 E0,G1 E3
;   layerChangeGcode,
;   retractionGcode,
;   toolChangeGcode,
;   endingGcode,G0 X0 Y0 ,M104 S0 ; turn off extruder,M140 S0 ; turn off bed,M84 ; disable motors
;   exportFileFormat,gcode
;   celebration,0
;   celebrationSong,Random Song
;   postProcessing,
;   defaultSpeed,3000
;   outlineUnderspeed,0.5
;   solidInfillUnderspeed,0.7
;   supportUnderspeed,0.8
;   rapidXYspeed,4800
;   rapidZspeed,1002
;   minBridgingArea,50
;   bridgingExtraInflation,0
;   bridgingExtrusionMultiplier,1
;   bridgingSpeedMultiplier,1
;   useFixedBridgingAngle,0
;   fixedBridgingAngle,0
;   applyBridgingToPerimeters,1
;   filamentDiameters,1.75|1.75|1.75|1.75|1.75|1.75
;   filamentPricesPerKg,480|46|46|46|46|46
;   filamentDensities,1.25|1.25|1.25|1.25|1.25|1.25
;   useMinPrintHeight,0
;   minPrintHeight,0
;   useMaxPrintHeight,0
;   maxPrintHeight,0
;   useDiaphragm,0
;   diaphragmLayerInterval,20
;   robustSlicing,1
;   mergeAllIntoSolid,0
;   onlyRetractWhenCrossingOutline,1
;   retractBetweenLayers,1
;   useRetractionMinTravel,0
;   retractionMinTravel,3
;   retractWhileWiping,0
;   onlyWipeOutlines,1
;   avoidCrossingOutline,0
;   maxMovementDetourFactor,3
;   toolChangeRetractionDistance,12
;   toolChangeExtraRestartDistance,-0.5
;   toolChangeRetractionSpeed,600
;   externalThinWallType,0
;   internalThinWallType,2
;   thinWallAllowedOverlapPercentage,20
;   singleExtrusionMinLength,1
;   singleExtrusionMinPrintingWidthPercentage,50
;   singleExtrusionMaxPrintingWidthPercentage,200
;   singleExtrusionEndpointExtension,0.2
;   horizontalSizeCompensation,0
G90
M82
M106 S255
G4 P500
M106 S0
M140 S90
M190 S90
M104 S210 T0
M109 S210 T0
G28 ; home all axes
G92 E0
G1 E3
G92 E0
G1 E-2.0000 F1200
G1 Z0.133 F1002
; process petg
; layer 1, Z = 0.133
T0
; tool H0.222 W0.400
; skirt
G1 X42.407 Y24.873 F4800
G1 E0.0000 F360
G92 E0
G1 X42.424 Y24.843 E0.0013 F1800
G1 X42.770 Y24.251 E0.0266
G1 X42.789 Y24.222 E0.0279
G1 X43.384 Y23.314 E0.0680
G1 X43.404 Y23.285 E0.0693
G1 X43.807 Y22.731 E0.0947
G1 X43.829 Y22.703 E0.0960
G1 X44.724 Y21.597 E0.1485
G1 X44.756 Y21.560 E0.1503
G1 X45.410 Y20.858 E0.1858
G1 X45.445 Y20.824 E0.1876
G1 X46.682 Y19.670 E0.2501
G1 X46.713 Y19.642 E0.2517
G1 X47.348 Y19.118 E0.2821
G1 X47.381 Y19.092 E0.2836
G1 X48.315 Y18.411 E0.3264
G1 X48.344 Y18.391 E0.3277
G1 X48.917 Y18.015 E0.3530
G1 X48.947 Y17.997 E0.3543
G1 X50.113 Y17.313 E0.4043
G1 X50.150 Y17.293 E0.4058
G1 X50.882 Y16.920 E0.4362
G1 X50.920 Y16.902 E0.4377
G1 X52.161 Y16.362 E0.4877
G1 X52.194 Y16.349 E0.4890
G1 X52.835 Y16.108 E0.5144
G1 X52.868 Y16.096 E0.5157
G1 X53.902 Y15.765 E0.5558
G1 X53.935 Y15.755 E0.5571
G1 X54.598 Y15.578 E0.5824
G1 X54.632 Y15.570 E0.5837
G1 X55.956 Y15.287 E0.6337
G1 X55.997 Y15.280 E0.6353
G1 X56.810 Y15.157 E0.6657
G1 X56.852 Y15.152 E0.6672
G1 X58.201 Y15.029 E0.7173
G1 X58.236 Y15.027 E0.7186
G1 X58.921 Y15.000 E0.7439
G1 X58.956 Y14.999 E0.7452
G1 X60.113 Y15.010 E0.7880
G1 X60.155 Y15.012 E0.7895
G1 X60.977 Y15.070 E0.8200
G1 X61.019 Y15.074 E0.8215
G1 X62.628 Y15.284 E0.8815
G1 X62.669 Y15.291 E0.8830
G1 X63.477 Y15.446 E0.9134
G1 X63.518 Y15.455 E0.9150
G1 X64.636 Y15.741 E0.9576
G1 X64.670 Y15.751 E0.9589
G1 X65.325 Y15.953 E0.9843
G1 X65.358 Y15.964 E0.9856
G1 X66.565 Y16.405 E1.0331
G1 X66.598 Y16.418 E1.0343
G1 X67.229 Y16.685 E1.0597
G1 X67.261 Y16.700 E1.0610
G1 X68.238 Y17.172 E1.1011
G1 X68.269 Y17.188 E1.1024
G1 X68.871 Y17.517 E1.1277
G1 X68.901 Y17.534 E1.1290
G1 X69.997 Y18.206 E1.1765
G1 X70.026 Y18.225 E1.1778
G1 X70.592 Y18.612 E1.2031
G1 X70.620 Y18.633 E1.2044
G1 X71.484 Y19.290 E1.2445
G1 X71.511 Y19.312 E1.2458
G1 X72.036 Y19.754 E1.2712
G1 X72.062 Y19.777 E1.2725
G1 X73.002 Y20.653 E1.3200
G1 X73.027 Y20.678 E1.3213
G1 X73.504 Y21.169 E1.3466
G1 X73.528 Y21.195 E1.3479
G1 X74.244 Y22.011 E1.3880
G1 X74.267 Y22.038 E1.3893
G1 X74.693 Y22.575 E1.4146
G1 X74.714 Y22.603 E1.4159
G1 X75.501 Y23.704 E1.4659
G1 X75.524 Y23.739 E1.4675
G1 X75.962 Y24.436 E1.4979
G1 X75.983 Y24.472 E1.4994
G1 X76.633 Y25.660 E1.5495
G1 X76.649 Y25.691 E1.5508
G1 X76.947 Y26.308 E1.5761
G1 X76.961 Y26.340 E1.5774
G1 X77.358 Y27.277 E1.6150
G1 X77.368 Y27.303 E1.6160
G1 X77.562 Y27.816 E1.6363
G1 X77.571 Y27.842 E1.6373
G1 X77.891 Y28.807 E1.6749
G1 X77.901 Y28.841 E1.6762
G1 X78.084 Y29.501 E1.7015
G1 X78.093 Y29.535 E1.7028
G1 X78.389 Y30.856 E1.7528
G1 X78.397 Y30.898 E1.7544
G1 X78.528 Y31.710 E1.7848
G1 X78.534 Y31.751 E1.7863
G1 X78.669 Y33.099 E1.8364
G1 X78.672 Y33.134 E1.8377
G1 X78.706 Y33.819 E1.8630
G1 X78.707 Y33.854 E1.8643
G1 X78.707 Y35.010 E1.9071
G1 X78.706 Y35.052 E1.9086
G1 X78.657 Y35.875 E1.9391
G1 X78.653 Y35.917 E1.9406
G1 X78.459 Y37.528 E2.0006
G1 X78.452 Y37.569 E2.0022
G1 X78.305 Y38.379 E2.0326
G1 X78.296 Y38.420 E2.0341
G1 X78.022 Y39.541 E2.0768
G1 X78.013 Y39.574 E2.0781
G1 X77.817 Y40.231 E2.1034
G1 X77.806 Y40.264 E2.1047
G1 X77.377 Y41.476 E2.1522
G1 X77.365 Y41.509 E2.1535
G1 X77.104 Y42.143 E2.1788
G1 X77.090 Y42.175 E2.1801
G1 X76.627 Y43.157 E2.2202
G1 X76.612 Y43.188 E2.2215
G1 X76.289 Y43.793 E2.2468
G1 X76.272 Y43.823 E2.2481
G1 X75.575 Y44.985 E2.2982
G1 X75.553 Y45.020 E2.2997
G1 X75.088 Y45.699 E2.3301
G1 X75.063 Y45.733 E2.3317
G1 X74.233 Y46.802 E2.3817
G1 X74.211 Y46.829 E2.3830
G1 X73.764 Y47.349 E2.4083
G1 X73.740 Y47.375 E2.4096
G1 X72.992 Y48.162 E2.4497
G1 X72.968 Y48.186 E2.4510
G1 X72.471 Y48.659 E2.4764
G1 X72.445 Y48.682 E2.4776
G1 X71.471 Y49.520 E2.5251
G1 X71.444 Y49.543 E2.5264
G1 X70.903 Y49.963 E2.5518
G1 X70.874 Y49.984 E2.5531
G1 X69.985 Y50.606 E2.5932
G1 X69.956 Y50.626 E2.5945
G1 X69.375 Y50.990 E2.6198
G1 X69.345 Y51.008 E2.6211
G1 X68.224 Y51.636 E2.6686
G1 X68.193 Y51.652 E2.6699
G1 X67.579 Y51.957 E2.6952
G1 X67.547 Y51.971 E2.6965
G1 X66.551 Y52.405 E2.7366
G1 X66.519 Y52.418 E2.7379
G1 X65.878 Y52.659 E2.7633
G1 X65.844 Y52.671 E2.7646
G1 X64.621 Y53.063 E2.8121
G1 X64.587 Y53.073 E2.8134
G1 X63.925 Y53.250 E2.8387
G1 X63.891 Y53.258 E2.8400
G1 X62.829 Y53.485 E2.8801
G1 X62.795 Y53.491 E2.8814
G1 X62.118 Y53.600 E2.9067
G1 X62.083 Y53.605 E2.9080
G1 X60.806 Y53.747 E2.9555
G1 X60.771 Y53.750 E2.9568
G1 X60.086 Y53.791 E2.9822
G1 X60.051 Y53.792 E2.9835
G1 X58.895 Y53.804 E3.0262
G1 X58.853 Y53.803 E3.0277
G1 X58.030 Y53.762 E3.0582
G1 X57.988 Y53.759 E3.0598
G1 X56.375 Y53.581 E3.1197
G1 X56.333 Y53.575 E3.1213
G1 X55.522 Y53.435 E3.1517
G1 X55.481 Y53.427 E3.1532
G1 X54.357 Y53.164 E3.1959
G1 X54.324 Y53.155 E3.1972
G1 X53.665 Y52.966 E3.2225
G1 X53.632 Y52.955 E3.2238
G1 X52.351 Y52.516 E3.2738
G1 X52.311 Y52.501 E3.2754
G1 X51.551 Y52.189 E3.3058
G1 X51.512 Y52.172 E3.3073
G1 X50.293 Y51.582 E3.3574
G1 X50.262 Y51.566 E3.3587
G1 X49.661 Y51.238 E3.3840
G1 X49.630 Y51.220 E3.3853
G1 X48.705 Y50.652 E3.4254
G1 X48.675 Y50.633 E3.4267
G1 X48.110 Y50.246 E3.4520
G1 X48.082 Y50.226 E3.4533
G1 X47.059 Y49.448 E3.5008
G1 X47.031 Y49.426 E3.5021
G1 X46.507 Y48.984 E3.5274
G1 X46.481 Y48.961 E3.5287
G1 X45.687 Y48.221 E3.5688
G1 X45.662 Y48.197 E3.5701
G1 X45.185 Y47.705 E3.5955
G1 X45.161 Y47.679 E3.5968
G1 X44.313 Y46.713 E3.6443
G1 X44.290 Y46.686 E3.6456
G1 X43.864 Y46.149 E3.6709
G1 X43.843 Y46.121 E3.6722
G1 X43.252 Y45.294 E3.7098
G1 X43.236 Y45.271 E3.7108
G1 X42.935 Y44.812 E3.7311
G1 X42.921 Y44.788 E3.7321
G1 X42.397 Y43.917 E3.7697
G1 X42.380 Y43.886 E3.7710
G1 X42.057 Y43.281 E3.7963
G1 X42.042 Y43.250 E3.7976
G1 X41.464 Y42.025 E3.8476
G1 X41.448 Y41.987 E3.8492
G1 X41.142 Y41.223 E3.8796
G1 X41.128 Y41.184 E3.8811
G1 X40.701 Y39.898 E3.9312
G1 X40.691 Y39.865 E3.9325
G1 X40.508 Y39.204 E3.9578
G1 X40.500 Y39.170 E3.9591
G1 X40.277 Y38.178 E3.9967
G1 X40.272 Y38.151 E3.9977
G1 X40.173 Y37.612 E4.0180
G1 X40.169 Y37.584 E4.0190
G1 X40.027 Y36.577 E4.0566
G1 X40.023 Y36.542 E4.0579
G1 X39.961 Y35.859 E4.0832
G1 X39.959 Y35.824 E4.0845
G1 X39.907 Y34.540 E4.1320
G1 X39.906 Y34.505 E4.1333
G1 X39.913 Y33.819 E4.1587
G1 X39.914 Y33.784 E4.1600
G1 X39.979 Y32.698 E4.2002
G1 X39.982 Y32.663 E4.2015
G1 X40.057 Y31.980 E4.2268
G1 X40.062 Y31.946 E4.2281
G1 X40.267 Y30.676 E4.2757
G1 X40.274 Y30.642 E4.2770
G1 X40.416 Y29.971 E4.3023
G1 X40.425 Y29.937 E4.3036
G1 X40.704 Y28.888 E4.3437
G1 X40.714 Y28.855 E4.3450
G1 X40.923 Y28.202 E4.3703
G1 X40.934 Y28.169 E4.3716
G1 X41.411 Y26.902 E4.4217
G1 X41.427 Y26.863 E4.4232
G1 X41.763 Y26.112 E4.4536
G1 X41.781 Y26.074 E4.4552
G1 X42.176 Y25.317 E4.4867
G1 X42.407 Y24.873 F1800
G92 E0
G1 E-2.0000 F1200
G1 X42.759 Y25.062 F4800
G1 E0.0000 F1200
G92 E0
G1 X42.771 Y25.041 E0.0009 F1800
G1 X43.113 Y24.458 E0.0259
G1 X43.126 Y24.437 E0.0268
G1 X43.715 Y23.537 E0.0666
G1 X43.730 Y23.517 E0.0675
G1 X44.128 Y22.971 E0.0924
G1 X44.143 Y22.951 E0.0934
G1 X45.030 Y21.854 E0.1455
G1 X45.053 Y21.828 E0.1468
G1 X45.698 Y21.136 E0.1817
G1 X45.723 Y21.111 E0.1830
G1 X46.950 Y19.967 E0.2450
G1 X46.973 Y19.947 E0.2462
G1 X47.598 Y19.430 E0.2761
G1 X47.622 Y19.412 E0.2772
G1 X48.547 Y18.737 E0.3196
G1 X48.567 Y18.723 E0.3205
G1 X49.132 Y18.352 E0.3455
G1 X49.154 Y18.339 E0.3464
G1 X50.311 Y17.661 E0.3959
G1 X50.337 Y17.646 E0.3971
G1 X51.058 Y17.280 E0.4270
G1 X51.085 Y17.267 E0.4281
G1 X52.316 Y16.731 E0.4777
G1 X52.340 Y16.722 E0.4786
G1 X52.972 Y16.484 E0.5036
G1 X52.995 Y16.475 E0.5045
G1 X54.019 Y16.147 E0.5442
G1 X54.043 Y16.140 E0.5452
G1 X54.696 Y15.966 E0.5701
G1 X54.720 Y15.960 E0.5710
G1 X56.034 Y15.680 E0.6207
G1 X56.063 Y15.674 E0.6218
G1 X56.864 Y15.553 E0.6517
G1 X56.894 Y15.549 E0.6528
G1 X58.232 Y15.428 E0.7025
G1 X58.257 Y15.427 E0.7034
G1 X58.932 Y15.399 E0.7284
G1 X58.957 Y15.399 E0.7293
G1 X60.103 Y15.410 E0.7716
G1 X60.133 Y15.411 E0.7728
G1 X60.943 Y15.468 E0.8028
G1 X60.973 Y15.471 E0.8039
G1 X62.570 Y15.680 E0.8634
G1 X62.599 Y15.685 E0.8645
G1 X63.395 Y15.838 E0.8945
G1 X63.425 Y15.845 E0.8956
G1 X64.532 Y16.127 E0.9378
G1 X64.556 Y16.134 E0.9387
G1 X65.201 Y16.334 E0.9637
G1 X65.225 Y16.342 E0.9646
G1 X66.423 Y16.779 E1.0118
G1 X66.447 Y16.788 E1.0127
G1 X67.069 Y17.052 E1.0376
G1 X67.091 Y17.062 E1.0386
G1 X68.060 Y17.530 E1.0783
G1 X68.082 Y17.541 E1.0792
G1 X68.675 Y17.865 E1.1042
G1 X68.696 Y17.878 E1.1051
G1 X69.783 Y18.545 E1.1522
G1 X69.804 Y18.558 E1.1532
G1 X70.362 Y18.940 E1.1781
G1 X70.382 Y18.954 E1.1791
G1 X71.238 Y19.605 E1.2188
G1 X71.258 Y19.621 E1.2197
G1 X71.774 Y20.056 E1.2447
G1 X71.793 Y20.073 E1.2456
G1 X72.726 Y20.942 E1.2927
G1 X72.744 Y20.960 E1.2937
G1 X73.214 Y21.444 E1.3186
G1 X73.231 Y21.463 E1.3195
G1 X73.940 Y22.271 E1.3593
G1 X73.956 Y22.290 E1.3602
G1 X74.376 Y22.819 E1.3852
G1 X74.391 Y22.839 E1.3861
G1 X75.172 Y23.932 E1.4357
G1 X75.189 Y23.957 E1.4368
G1 X75.620 Y24.643 E1.4668
G1 X75.635 Y24.669 E1.4679
G1 X76.279 Y25.848 E1.5175
G1 X76.291 Y25.870 E1.5185
G1 X76.585 Y26.478 E1.5434
G1 X76.595 Y26.501 E1.5443
G1 X76.988 Y27.429 E1.5816
G1 X76.995 Y27.447 E1.5823
G1 X77.186 Y27.953 E1.6023
G1 X77.193 Y27.972 E1.6030
G1 X77.510 Y28.928 E1.6403
G1 X77.517 Y28.952 E1.6412
G1 X77.698 Y29.603 E1.6662
G1 X77.704 Y29.627 E1.6671
G1 X77.997 Y30.938 E1.7167
G1 X78.003 Y30.967 E1.7178
G1 X78.132 Y31.768 E1.7478
G1 X78.136 Y31.797 E1.7489
G1 X78.271 Y33.134 E1.7985
G1 X78.273 Y33.159 E1.7995
G1 X78.307 Y33.834 E1.8244
G1 X78.307 Y33.859 E1.8254
G1 X78.307 Y35.004 E1.8677
G1 X78.307 Y35.034 E1.8688
G1 X78.258 Y35.845 E1.8988
G1 X78.255 Y35.875 E1.8999
G1 X78.062 Y37.474 E1.9594
G1 X78.058 Y37.504 E1.9606
G1 X77.913 Y38.301 E1.9905
G1 X77.906 Y38.330 E1.9916
G1 X77.635 Y39.441 E2.0339
G1 X77.628 Y39.465 E2.0348
G1 X77.435 Y40.112 E2.0597
G1 X77.427 Y40.136 E2.0607
G1 X77.002 Y41.338 E2.1078
G1 X76.993 Y41.362 E2.1087
G1 X76.736 Y41.986 E2.1337
G1 X76.726 Y42.009 E2.1346
G1 X76.267 Y42.982 E2.1744
G1 X76.256 Y43.005 E2.1753
G1 X75.938 Y43.600 E2.2002
G1 X75.926 Y43.622 E2.2012
G1 X75.235 Y44.774 E2.2508
G1 X75.219 Y44.799 E2.2519
G1 X74.761 Y45.468 E2.2819
G1 X74.744 Y45.492 E2.2830
G1 X73.920 Y46.553 E2.3326
G1 X73.904 Y46.572 E2.3335
G1 X73.464 Y47.084 E2.3585
G1 X73.447 Y47.103 E2.3594
G1 X72.706 Y47.882 E2.3992
G1 X72.688 Y47.900 E2.4001
G1 X72.199 Y48.365 E2.4250
G1 X72.181 Y48.382 E2.4260
G1 X71.214 Y49.214 E2.4731
G1 X71.195 Y49.230 E2.4740
G1 X70.661 Y49.644 E2.4990
G1 X70.641 Y49.659 E2.4999
